X: 4267
T: BONAPARTE'S HORNPIPE
R: Hornpipe.
%R: hornpipe, reel
B: James Kerr "Merry Melodies" v.4 p.29 #267
Z: 2016 John Chambers <jc:trillian.mit.edu>
M: C|
L: 1/8
K: A
(ed) |\
c2c2 cecA | d2d2 dfdB |\
Aceg agaf | ecdB AGFE |\
c2c2 cecA |
dcde fgaf |\
ecAc dBGB | A2A2A2 ::\
(cd) |\
ecec agaf | ecef edcB |
Aceg agaf | ecef edcB |\
Aece Aece | dcde fgaf |\
ecAc dBGB | A2A2A2 :|

%%sep 1 1 500
%%sep 1 1 500

